themes/long-island-rim/img/time.svg

<svg xmlns="http://www.w3.org/2000/svg" width="24" height="24" viewBox="0 0 24 24"><path d="M18.513 7.119c.958-1.143 1.487-2.577 1.487-4.036v-3.083h-16v3.083c0 1.459.528 2.892 1.487 4.035l3.086 3.68c.567.677.571 1.625.009 2.306l-3.13 3.794c-.936 1.136-1.452 2.555-1.452 3.995v3.107h16v-3.107c0-1.44-.517-2.858-1.453-3.994l-3.13-3.794c-.562-.681-.558-1.629.009-2.306l3.087-3.68zm-4.639 7.257l3.13 3.794c.652.792.996 1.726.996 2.83h-12c0-1.104.343-2.039.996-2.829l3.129-3.793c1.167-1.414 1.159-3.459-.019-4.864l-3.086-3.681c-.66-.785-1.02-1.736-1.02-2.834h12c0 1.101-.363 2.05-1.02 2.834l-3.087 3.68c-1.177 1.405-1.185 3.451-.019 4.863z"/></svg>

<svg version="1.1" id="Layer_1" xmlns="http://www.w3.org/2000/svg" xmlns:xlink="http://www.w3.org/1999/xlink" x="0px" y="0px"
	 viewBox="0 0 24 24" style="enable-background:new 0 0 24 24;" xml:space="preserve">
<style type="text/css">
	.st0{fill:#FFFFFF;}
</style>
<path class="st0" d="M18.5,7.1c1-1.1,1.5-2.6,1.5-4V0H4v3.1c0,1.5,0.5,2.9,1.5,4l3.1,3.7c0.6,0.7,0.6,1.6,0,2.3l-3.1,3.8
	C4.5,18,4,19.5,4,20.9V24h16v-3.1c0-1.4-0.5-2.9-1.5-4l-3.1-3.8c-0.6-0.7-0.6-1.6,0-2.3C15.4,10.8,18.5,7.1,18.5,7.1z M13.9,14.4
	l3.1,3.8c0.7,0.8,1,1.7,1,2.8H6c0-1.1,0.3-2,1-2.8l3.1-3.8c1.2-1.4,1.2-3.5,0-4.9L7,5.8C6.4,5,6,4.1,6,3h12c0,1.1-0.4,2-1,2.8
	l-3.1,3.7C12.7,10.9,12.7,13,13.9,14.4z"/>
</svg>
